icons/inbox-arrow-up-outline.svg

<svg xmlns="http://www.w3.org/2000/svg" width="24" height="24" viewBox="0 0 24 24">
  <path d="M19,2 C20.5976809,2 21.9036609,3.24891996 21.9949073,4.82372721 L22,5 L22,19 C22,20.5976809 20.75108,21.9036609 19.1762728,21.9949073 L19,22 L5,22 C3.40231912,22 2.09633912,20.75108 2.00509269,19.1762728 L2,19 L2,5 C2,3.40231912 3.24891996,2.09633912 4.82372721,2.00509269 L5,2 L19,2 Z M19,4 L5,4 C4.48716416,4 4.06449284,4.38604019 4.00672773,4.88337887 L4,5 L4,14 L6,14 C7.1045695,14 8,14.8954305 8,16 C8,17.1045695 8.8954305,18 10,18 L14,18 C15.1045695,18 16,17.1045695 16,16 C16,14.8954305 16.8954305,14 18,14 L20,14 L20,5 C20,4.48716416 19.6139598,4.06449284 19.1166211,4.00672773 L19,4 Z M12,6 L12.019,6.001 L12.03,6.001 L12.081,6.003 L12.1489612,6.01101934 L12.1489612,6.01101934 C12.165949,6.01362808 12.1833753,6.01670217 12.2007258,6.02024007 C12.2227461,6.0246398 12.2444365,6.02983363 12.2658396,6.03572097 C12.2814633,6.04009773 12.2968513,6.04472872 12.3121425,6.04973809 C12.3317977,6.05612249 12.3515792,6.06331574 12.3710585,6.07110396 L12.4232215,6.09367336 L12.4232215,6.09367336 C12.4438914,6.10337664 12.4642939,6.11379392 12.484277,6.12487577 C12.4963944,6.13149883 12.5086131,6.13860692 12.5207088,6.14599545 C12.546275,6.1617187 12.5711307,6.17849009 12.5951593,6.19631351 C12.6012086,6.20071786 12.6070733,6.20517454 12.6128994,6.20970461 C12.6196628,6.21507113 12.6225624,6.2173721 12.625449,6.21968877 L12.7071068,6.29289322 L15.7071068,9.29289322 C16.0976311,9.68341751 16.0976311,10.3165825 15.7071068,10.7071068 C15.3466228,11.0675907 14.7793918,11.0953203 14.3871006,10.7902954 L14.2928932,10.7071068 L13,9.415 L13,13 C13,13.5522847 12.5522847,14 12,14 C11.4871642,14 11.0644928,13.6139598 11.0067277,13.1166211 L11,13 L11,9.415 L9.70710678,10.7071068 C9.31658249,11.0976311 8.68341751,11.0976311 8.29289322,10.7071068 C7.93240926,10.3466228 7.90467972,9.77939176 8.20970461,9.38710056 L8.29289322,9.29289322 L11.2928932,6.29289322 L11.37,6.224 L11.38,6.215 L11.4046934,6.19633458 L11.4046934,6.19633458 C11.4288693,6.17849009 11.453725,6.1617187 11.4793398,6.14606743 L11.5159379,6.12467117 L11.5159379,6.12467117 C11.5357061,6.11379392 11.5561086,6.10337664 11.5769009,6.09365378 L11.628664,6.07122549 L11.628664,6.07122549 C11.6484208,6.06331574 11.6682023,6.05612249 11.6882636,6.04954668 C11.7031487,6.04472872 11.7185367,6.04009773 11.734007,6.03584514 C11.7555635,6.02983363 11.7772539,6.0246398 11.7992059,6.02016515 C11.8166247,6.01670217 11.834051,6.01362808 11.8515331,6.0110178 L11.909968,6.00399798 L11.909968,6.00399798 C11.9208131,6.00307004 11.9308872,6.00232561 11.9409686,6.0017331 L11.980824,6.00018018 L12,6 L12,6 Z"/>
</svg>

<svg xmlns="http://www.w3.org/2000/svg" viewBox="0 0 24 24">
  <path d="M19 2a3 3 0 0 1 3 2.82V19a3 3 0 0 1-2.82 3H5a3 3 0 0 1-3-2.82V5a3 3 0 0 1 2.82-3H19zm0 2H5a1 1 0 0 0-1 .88V14h2a2 2 0 0 1 2 2c0 1.1.9 2 2 2h4a2 2 0 0 0 2-2c0-1.1.9-2 2-2h2V5a1 1 0 0 0-.88-1H19zm-7 2h.08l.07.01a1.08 1.08 0 0 1 .22.06l.05.02a1.02 1.02 0 0 1 .2.13l.09.07 3 3a1 1 0 0 1-1.32 1.5l-.1-.08L13 9.4V13a1 1 0 0 1-2 .12V9.4l-1.3 1.3a1 1 0 0 1-1.49-1.32l.08-.1 3-3 .08-.07h.01l.02-.02.08-.05.04-.03.06-.03.05-.02a.99.99 0 0 1 .22-.06h.09l.04-.01H12z"/>
</svg>
